icons/person-arrow-down.svg

<svg xmlns="http://www.w3.org/2000/svg" width="24" height="24" viewBox="0 0 24 24">
  <path d="M10,16 C12.9230769,16 15.8461538,16.9493754 15.9941334,19.3106425 L16,19.5 L16,20.5 C16,20.975 16,21.90125 15.142625,21.9926875 L15,22 L3,22 C2.1,22 2.01,21.19 2.001,20.6635 L2,19.5 C2,17.0641026 4.84812623,16.0522682 7.76928134,16.0019808 L8,16 L10,16 Z M9,6 C11.209139,6 13,7.790861 13,10 C13,12.209139 11.209139,14 9,14 C6.790861,14 5,12.209139 5,10 C5,7.790861 6.790861,6 9,6 Z M18,2 C18.5522847,2 19,2.44771525 19,3 L19,3 L19,6.585 L20.2928932,5.29289322 L20.3871006,5.20970461 C20.7793918,4.90467972 21.3466228,4.93240926 21.7071068,5.29289322 C22.0976311,5.68341751 22.0976311,6.31658249 21.7071068,6.70710678 L21.7071068,6.70710678 L18.7071068,9.70710678 L18.625449,9.78031123 C18.6225624,9.7826279 18.6196628,9.78492887 18.6128994,9.79029539 C18.6070733,9.79482546 18.6012086,9.79928214 18.5951593,9.80368649 C18.5711307,9.82150991 18.546275,9.8382813 18.5207088,9.85400455 C18.5086131,9.86139308 18.4963944,9.86850117 18.484277,9.87512423 C18.4642939,9.88620608 18.4438914,9.89662336 18.4232215,9.90632664 L18.4232215,9.90632664 L18.3710585,9.92889604 C18.3515792,9.93668426 18.3317977,9.94387751 18.3121425,9.95026191 C18.2968513,9.95527128 18.2814633,9.95990227 18.2658396,9.96427903 C18.2444365,9.97016637 18.2227461,9.9753602 18.2007258,9.97975993 C18.1833753,9.98329783 18.165949,9.98637192 18.1489612,9.98898066 L18.1489612,9.98898066 L18.08,9.996 L18.026,9.999 L18.019,9.999 L18,10 C17.9935938,10 17.9872016,9.99993976 17.980824,9.99981982 L17.980824,9.99981982 L17.9409686,9.9982669 C17.9308872,9.99767439 17.9208131,9.99692996 17.909968,9.99600202 L17.909968,9.99600202 L17.8515331,9.9889822 C17.834051,9.98637192 17.8166247,9.98329783 17.7992059,9.97983485 C17.7772539,9.9753602 17.7555635,9.97016637 17.734007,9.96415486 C17.7185367,9.95990227 17.7031487,9.95527128 17.6882636,9.95045332 C17.6682023,9.94387751 17.6484208,9.93668426 17.628664,9.92877451 L17.628664,9.92877451 L17.5769009,9.90634622 C17.5561086,9.89662336 17.5357061,9.88620608 17.5159379,9.87532883 L17.5159379,9.87532883 L17.4793398,9.85393257 C17.453725,9.8382813 17.4288693,9.82150991 17.4046934,9.80366542 L17.4046934,9.80366542 L17.38,9.784 L17.3832499,9.78721404 L17.378,9.783 L17.374551,9.78031123 L17.359,9.767 L17.347434,9.75779198 L17.347434,9.75779198 L17.2928932,9.70710678 L14.2928932,6.70710678 L14.2097046,6.61289944 C13.9046797,6.22060824 13.9324093,5.65337718 14.2928932,5.29289322 C14.6834175,4.90236893 15.3165825,4.90236893 15.7071068,5.29289322 L15.7071068,5.29289322 L17,6.585 L17,3 L17.0067277,2.88337887 C17.0644928,2.38604019 17.4871642,2 18,2 Z"/>
</svg>

<svg xmlns="http://www.w3.org/2000/svg" viewBox="0 0 24 24">
  <path d="M10 16c2.92 0 5.85.95 6 3.31v1.19c0 .48 0 1.4-.86 1.5H3c-.9 0-.99-.81-1-1.34V19.5c0-2.44 2.85-3.45 5.77-3.5H10zM9 6a4 4 0 1 1 0 8 4 4 0 0 1 0-8zm9-4a1 1 0 0 1 1 1v3.58l1.3-1.29.09-.08a1 1 0 0 1 1.32 1.5l-3 3-.08.07a3.01 3.01 0 0 1-.15.1l-.06.03-.05.02a.95.95 0 0 1-.22.06h-.13L18 10h-.09l-.06-.01a1.1 1.1 0 0 1-.22-.06l-.05-.02a1.04 1.04 0 0 1-.06-.03l-.04-.03a1.03 1.03 0 0 1-.08-.05l-.02-.02-.02-.01-.01-.01-.06-.05-3-3-.08-.1a1 1 0 0 1 1.5-1.32L17 6.6V2.88A1 1 0 0 1 18 2z"/>
</svg>
